X:4534
L:1/8
Q:1/4=120
M:3/4
K:A
"^Slowly and Distinctly" E2 E>F{F} A2 | A>B c2{c} (BA) | E2 E>F{F} A2 | A>B c2{c} (BA) | 
 c2 Bc e>d |{d} c2 Bc !fermata!e2 | cB{c} B2 A>F |{F} A2{c} B2 BA | F2 E2 z2 || (EE) (AA){c} e2 | 
 c A2{c} B A>F | EE F{F} A3 | A>Bc>A{c} BA | dd c>d{Ac} !fermata!e2{d} | c2 Bc e2 | d>c{c} B A2 F | 
{EF} A2 c B2 BA | F2 E2 z2 ||

